X:093
T:Lord Ramsey’s Reel TS.093
M:C|
L:1/8
Q:1/2=70
S:Thomas Sands’ MS,1810,Lincolnshire
R:Strathspey
O:England;Lincolnshire
Z:vmp.Ruairidh Greig, 2011
K:Bb
z|defg fdf2|dfbf fdB2|defg fdf2|d>b e/d/c/B/ c2B:|
|:B|FBDB FBD2|dc/B/ fdcBG2|FBDB FBD2|dc/B/ fdc2B2|
FBDB FBD2|dc/B/ fdcBG2|FBDB FG Bg|fd/B/ fd c2B2|]

